src/headphones.svg

<svg viewBox="0 0 16 16" fill="none" xmlns="http://www.w3.org/2000/svg"><path d="M12.2898 3.87989C13.4146 5.0496 14.0296 6.61755 14.0001 8.24V10.5C14.0001 10.5 13.9993 10.8977 14.0001 11C14.0001 11.7956 13.684 12.5587 13.1214 13.1213C12.5588 13.6839 11.7958 14 11.0001 14H10.0001V8H11.0001C11.7402 8.00441 12.4525 8.28221 13.0001 8.78V8.24C13.0161 7.56758 12.8994 6.89862 12.6567 6.27132C12.414 5.64402 12.0501 5.07068 11.5858 4.58406C11.1214 4.09745 10.5658 3.70709 9.95055 3.43529C9.3353 3.16349 8.67254 3.01558 8.00011 3C7.32769 3.01558 6.66492 3.16349 6.04968 3.43529C5.43444 3.70709 4.87878 4.09745 4.41445 4.58406C3.95012 5.07068 3.58622 5.64402 3.34355 6.27132C3.10087 6.89862 2.98417 7.56758 3.00011 8.24V8.78C3.54775 8.28221 4.26006 8.00441 5.00011 8H6.00011V14H5.00011C4.20446 14 3.4414 13.6839 2.87879 13.1213C2.31618 12.5587 2.00011 11.7956 2.00011 11C1.98011 10.8339 1.98011 10.6661 2.00011 10.5V8.24C1.97064 6.61755 2.58567 5.0496 3.7104 3.87989C4.83512 2.71017 6.37775 2.03415 8.00011 2C9.62248 2.03415 11.1651 2.71017 12.2898 3.87989Z" fill="#111111"/></svg>

<svg viewBox="0 0 16 16" fill="none" xmlns="http://www.w3.org/2000/svg"><path d="M12.29 3.88A6.13 6.13 0 0 1 14 8.24V11a3 3 0 0 1-3 3h-1V8h1a3 3 0 0 1 2 .78v-.54A5.118 5.118 0 0 0 8 3a5.12 5.12 0 0 0-5 5.24v.54A3 3 0 0 1 5 8h1v6H5a3 3 0 0 1-3-3 2.09 2.09 0 0 1 0-.5V8.24A6.13 6.13 0 0 1 8 2a6.13 6.13 0 0 1 4.29 1.88Z" fill="#111111"/></svg>
